outputs/icons/action/touch_round.svg

<svg width="1200" height="1200" viewBox="0 0 1200 1200" fill="none" xmlns="http://www.w3.org/2000/svg"><g clip-path="url(#clip0_223_1909)"><path d="M439.503 462V275C439.503 206 495.503 150 564.505 150C633.505 150 689.505 206 689.505 275V462C750.005 421.5 789.505 353 789.505 275C789.505 150.5 689.005 50 564.505 50C440.003 50 339.503 150.5 339.503 275C339.503 353 379.003 421.5 439.503 462ZM714.505 585.5C700.505 578.5 685.505 575 670.005 575H639.505V275C639.505 233.5 606.005 200 564.505 200C523.005 200 489.503 233.5 489.503 275V812L317.503 776C299.003 772 279.503 778 266.003 791.5C244.503 813.5 244.503 848.5 266.003 870.5L466.503 1071C485.503 1089.5 511.005 1100 537.505 1100H842.505C892.505 1100 934.505 1063.5 941.505 1014L973.005 790.5C979.005 748 957.005 706 918.505 687L714.505 585.5Z" fill="black"/></g><defs><clipPath id="clip0_223_1909"><path width="24" fill="white" d="M0 0H1200V1200H0V0z"/></clipPath></defs></svg>

<svg xmlns="http://www.w3.org/2000/svg" width="1200" height="1200" fill="none"><g clip-path="url(#a)"><path fill="#000" d="M439.503 462V275c0-69 56-125 125.002-125 69 0 125 56 125 125v187c60.5-40.5 100-109 100-187 0-124.5-100.5-225-225-225-124.502 0-225.002 100.5-225.002 225 0 78 39.5 146.5 100 187m275.002 123.5c-14-7-29-10.5-44.5-10.5h-30.5V275c0-41.5-33.5-75-75-75s-75.002 33.5-75.002 75v537l-172-36c-18.5-4-38 2-51.5 15.5-21.5 22-21.5 57 0 79l200.5 200.5c19 18.5 44.502 29 71.002 29h305c50 0 92-36.5 99-86l31.5-223.5c6-42.5-16-84.5-54.5-103.5z"/></g><defs><clipPath id="a"><path fill="#fff" d="M0 0h1200v1200H0z"/></clipPath></defs></svg>
